svg/u1f469_200d_2708.svg

<svg viewBox="0 0 128 128" xmlns="http://www.w3.org/2000/svg" xmlns:xlink="http://www.w3.org/1999/xlink">
  <g id="hairGroup_4_">
    <path id="hair_4_" d="M64.57,4.87c-41.01,0-40.68,35.92-40.68,36.52c0,24.56,1.88,59.25,11.71,72.9 c3.9,5.41,11.43,5.71,11.43,5.71l16.97-0.03L80.97,120c0,0,7.38-0.41,11.43-5.71c11.42-14.94,11.71-48.34,11.71-72.9 C104.1,40.79,105.57,4.87,64.57,4.87z" fill="#543930"/>
    <radialGradient id="hairHighlights_2_" cx="64.001" cy="57.6496" gradientTransform="matrix(1 0 0 1.1901 0 -9.1211)" gradientUnits="userSpaceOnUse" r="46.9637">
      <stop offset="0.7936" stop-color="#6D4C41" stop-opacity="0"/>
      <stop offset="1" stop-color="#6D4C41"/>
    </radialGradient>
    <path id="hairHighlights_4_" d="M64.84,4.87c-41.01,0-40.95,37.21-40.95,37.81 c0,23.56,1.91,58.42,11.74,72.07c3.9,5.41,11.67,5.25,11.67,5.25l16.97-0.03l16.97,0.03c0,0,7.47-0.35,11.43-5.71 c11-14.89,11.43-48.35,11.43-72.91C104.1,40.79,105.85,4.87,64.84,4.87z" fill="url(#hairHighlights_2_)"/>
  </g>
  <g id="neck_2_">
    <polygon fill="#E59600" points="73.63,112.3 73.63,89.51 64,89.51 54.37,89.51 54.37,112.3 "/>
  </g>
  <radialGradient id="suit_back_layer_2_" cx="64.6139" cy="121.182" gradientTransform="matrix(1 0 0 0.5476 0 57.6522)" gradientUnits="userSpaceOnUse" r="52.4973">
    <stop offset="0.7824" stop-color="#212121"/>
    <stop offset="1" stop-color="#616161"/>
  </radialGradient>
  <path id="suit_back_layer_1_" d="M116.52,123.96v-3.11c0-9.38-8.44-15.34-15.73-18.43 c-6.45-2.74-14.28-5.1-23.99-5.8c0,0-2.92,19.52-12.65,19.38c-8.32-0.12-11.91-19.41-11.91-19.41 c-20.55,1.94-40.75,9.46-40.75,24.26v3.11H116.52z" fill="url(#suit_back_layer_2_)"/>
  <path id="head_2_" d="M64,16.04c-17.2,0-33.13,12.79-33.13,39.91c0,21.79,13.49,34.67,25.23,38.83 c2.8,0.99,5.5,1.49,7.9,1.49c2.38,0,5.07-0.49,7.85-1.47c11.76-4.14,25.28-17.03,25.28-38.84C97.13,28.83,81.2,16.04,64,16.04z" fill="#FFCA28"/>
  <path id="nose_2_" d="M67.82,68.05c-0.1-0.04-0.21-0.07-0.32-0.08h-6.99c-0.11,0.01-0.21,0.04-0.32,0.08 c-0.63,0.26-0.98,0.91-0.68,1.61s1.69,2.66,4.49,2.66c2.8,0,4.19-1.96,4.49-2.66C68.8,68.97,68.46,68.31,67.82,68.05z" fill="#E59600"/>
  <g id="eyes_2_">
    <ellipse cx="47.75" cy="58.87" fill="#404040" rx="4.87" ry="5.04"/>
    <ellipse cx="80.25" cy="58.87" fill="#404040" rx="4.87" ry="5.04"/>
  </g>
  <path id="mouth_2_" d="M72.31,76.14c-3.15,1.87-13.46,1.87-16.61,0c-1.81-1.07-3.65,0.57-2.9,2.21 c0.74,1.61,6.37,5.36,11.23,5.36s10.42-3.75,11.16-5.36C75.94,76.71,74.11,75.06,72.31,76.14z" fill="#795548"/>
  <g id="eyebrows_2_">
    <path d="M54.98,49.82c-0.93-1.23-3.07-3.01-7.23-3.01s-6.31,1.79-7.23,3.01c-0.41,0.54-0.31,1.17-0.02,1.55 c0.26,0.35,1.04,0.68,1.9,0.39s2.54-1.16,5.35-1.18c2.81,0.02,4.49,0.89,5.35,1.18s1.64-0.03,1.9-0.39 C55.29,50.99,55.39,50.36,54.98,49.82z" fill="#6D4C41"/>
    <path d="M87.48,49.82c-0.93-1.23-3.07-3.01-7.23-3.01s-6.31,1.79-7.23,3.01c-0.41,0.54-0.31,1.17-0.02,1.55 c0.26,0.35,1.04,0.68,1.9,0.39s2.54-1.16,5.35-1.18c2.81,0.02,4.49,0.89,5.35,1.18s1.64-0.03,1.9-0.39 C87.79,50.99,87.89,50.36,87.48,49.82z" fill="#6D4C41"/>
  </g>
  <g id="hairGroup_1_">
    <path id="hair_3_" d="M64.7,4.87c-41.01,0-40.68,35.92-40.68,36.52c0,7.76,0.19,16.53,0.75,25.32l6.72-0.02 c-0.06-2.92,1.99-20.97,8.08-22.34c22.36-5.03,35.01-16.89,35.01-16.89c3.29,7.18,13.58,14.19,17.27,16.86 c3.03,2.19,4.27,18.55,4.21,22.38h7.4c0-0.05,0.02-0.1,0.02-0.16c0.56-8.75,0.47-17.46,0.47-25.17 C103.97,40.79,105.71,4.87,64.7,4.87z" fill="#543930"/>
    <radialGradient id="hairHighlights_3_" cx="64.3324" cy="60.7722" gradientTransform="matrix(1 0 0 1.2135 0 -11.1478)" gradientUnits="userSpaceOnUse" r="49.6061">
      <stop offset="0.7945" stop-color="#6D4C41" stop-opacity="0"/>
      <stop offset="1" stop-color="#6D4C41"/>
    </radialGradient>
    <path id="hairHighlights_1_" d="M64.7,4.87c-41.01,0-40.68,35.92-40.68,36.52 c0,7.76,0.19,16.53,0.75,25.32l6.72-0.02c-0.06-2.92,1.99-20.97,8.08-22.34c22.36-5.03,35.01-16.89,35.01-16.89 c3.29,7.18,13.58,14.19,17.27,16.86c3.03,2.19,4.27,18.55,4.21,22.38h7.4c0-0.05,0.02-0.1,0.02-0.16 c0.56-8.75,0.47-17.46,0.47-25.17C103.97,40.79,105.71,4.87,64.7,4.87z" fill="url(#hairHighlights_3_)"/>
  </g>
  <g id="cap_2_">
    <g>
      <linearGradient id="SVGID_1_" gradientTransform="matrix(1 0 0 1 0 2)" gradientUnits="userSpaceOnUse" x1="64.061" x2="64.061" y1="25.8493" y2="42.9818">
        <stop offset="4.000000e-03" stop-color="#666666"/>
        <stop offset="0.0797" stop-color="#606060"/>
        <stop offset="0.5459" stop-color="#3F3F3F"/>
        <stop offset="0.8021" stop-color="#333333"/>
      </linearGradient>
      <path d="M63.8,24.17c-33.25,0-38.58,11.36-38.58,11.36s10.25,9.91,38.58,10.1 c28.34-0.19,39.11-10.73,39.11-10.73S97.06,24.17,63.8,24.17z" fill="url(#SVGID_1_)"/>
    </g>
    <path d="M20.42,34.44c1.69,6.19,3.31,8.74,3.31,8.74c1.72-1.99,11.93-11.38,40.21-11.38h0.12h0.04 c28.28,0,38.03,9.43,39.74,11.43c0,0,2.04-2.76,3.74-8.95c3.93-14.32-15.53-30.36-43.53-30.36C36.13,3.93,16.51,20.14,20.42,34.44z " fill="#303030"/>
    <g>
      <defs>
        <path id="SVGID_2_" d="M20.42,34.44c1.69,6.19,3.31,8.74,3.31,8.74c1.72-1.99,11.93-11.38,40.21-11.38h0.12h0.04 c28.28,0,38.03,9.43,39.74,11.43c0,0,2.04-2.76,3.74-8.95c3.93-14.32-15.53-30.36-43.53-30.36 C36.13,3.93,16.51,20.14,20.42,34.44z"/>
      </defs>
      <clipPath id="SVGID_3_">
        <use overflow="visible" xlink:href="#SVGID_2_"/>
      </clipPath>
      <path clip-path="url(#SVGID_3_)" d="M98.22,35.24c-0.2-1.08-0.79-2.04-1.66-2.7 c-3.61-2.8-14.41-9.75-32.71-9.75c-18.77,0-29.28,6.94-32.76,9.74c-0.83,0.67-1.4,1.61-1.59,2.65l-0.01,0.06 c-0.6,3.17,2.27,5.92,5.41,5.17c6.55-1.58,17.23-3.6,28.95-3.62c11.73,0.02,22.4,2.05,28.95,3.62 C95.94,41.16,98.81,38.41,98.22,35.24z" fill="#212121"/>
    </g>
    <g>
      <path d="M57.32,20.28c-0.09,0.06-0.18,0.1-0.29,0.1h-9.84c-0.36,0-0.5,0.46-0.21,0.67 c0.23,0.17,0.46,0.33,0.69,0.48c0.8,0.54,1.74,0.82,2.71,0.82h7.72C57.87,21.61,57.61,20.91,57.32,20.28z" fill="#FFC107"/>
      <path d="M56.85,19.31c-0.52-1-1.03-1.78-1.4-2.3H42.81c-0.27,0-0.4,0.34-0.2,0.51 c0.12,0.11,0.25,0.22,0.37,0.33c1.07,0.94,2.45,1.46,3.88,1.46H56.85z" fill="#FFC107"/>
      <path d="M58.39,23.42H51.6c-0.21,0-0.28,0.29-0.09,0.39c4.11,2.05,6.44,1.91,6.44,1.91h0.79 C58.69,24.92,58.57,24.15,58.39,23.42z" fill="#FFC107"/>
      <path d="M80.83,20.38h-9.84c-0.11,0-0.21-0.04-0.29-0.1c-0.29,0.63-0.55,1.33-0.78,2.07h7.72 c0.96,0,1.91-0.28,2.71-0.82c0.23-0.15,0.45-0.31,0.69-0.48C81.33,20.84,81.19,20.38,80.83,20.38z" fill="#FFC107"/>
      <path d="M85.22,17.01H72.58c-0.37,0.52-0.88,1.3-1.4,2.3h9.99c1.43,0,2.81-0.51,3.88-1.46 c0.12-0.11,0.24-0.22,0.37-0.33C85.61,17.34,85.48,17.01,85.22,17.01z" fill="#FFC107"/>
      <path d="M76.42,23.42h-6.79c-0.17,0.73-0.29,1.5-0.35,2.3h0.79c0,0,2.33,0.14,6.44-1.91 C76.69,23.71,76.63,23.42,76.42,23.42z" fill="#FFC107"/>
      <path d="M68.26,14.33c-0.76,0.35-1.66,0.56-2.49,0.69c-1.17,0.18-2.36,0.18-3.53,0 c-0.83-0.13-1.73-0.34-2.49-0.69c-0.48-0.22-1.04,0.02-1.24,0.51l-0.8,1.98c-0.21,0.52-0.17,0.86,0.02,1.12 c0.71,0.96,2.39,3.59,2.5,6.76c0.01,0.35,0.2,0.67,0.52,0.83c0.65,0.31,1.79,0.91,2.64,1.61c0.36,0.3,0.86,0.3,1.22,0 c0.86-0.71,1.99-1.3,2.64-1.61c0.32-0.15,0.51-0.47,0.52-0.83c0.11-3.17,1.8-5.79,2.5-6.76c0.19-0.26,0.23-0.6,0.11-0.89 c-0.23-0.56-0.6-1.49-0.89-2.21C69.31,14.35,68.74,14.11,68.26,14.33z" fill="#FFC107"/>
    </g>
  </g>
  <radialGradient id="SVGID_4_" cx="64.2871" cy="34.022" gradientTransform="matrix(1 0 0 0.6655 0 13.8845)" gradientUnits="userSpaceOnUse" r="52.0145">
    <stop offset="0.6313" stop-color="#212121" stop-opacity="0"/>
    <stop offset="0.9176" stop-color="#BFBEBE"/>
  </radialGradient>
  <path d="M20.38,34.44c1.69,6.19,3.31,8.74,3.31,8.74 c1.72-2,11.98-11.62,40.27-11.62c0.01,0,0.12,0,0.12,0l0,0c0,0,0,0,0.04,0c28.28,0,37.96,9.67,39.68,11.67c0,0,2.11-2.99,3.81-9.18 c3.93-14.32-15.39-30.13-43.39-30.13C36.28,3.92,16.47,20.13,20.38,34.44z" enable-background="new " fill="url(#SVGID_4_)" opacity="0.3"/>
  <g id="emblem_2_">
    <path d="M92.2,119.78c-0.04,0.02-0.08,0.04-0.12,0.04h-4.12c-0.15,0-0.21,0.19-0.09,0.28 c0.1,0.07,0.19,0.14,0.29,0.2c0.33,0.23,0.73,0.34,1.13,0.34h3.23C92.43,120.34,92.32,120.05,92.2,119.78z" fill="#FFC107"/>
    <path d="M92,119.38c-0.22-0.42-0.43-0.74-0.59-0.96h-5.29c-0.11,0-0.17,0.14-0.08,0.22 c0.05,0.05,0.1,0.09,0.15,0.14c0.45,0.4,1.03,0.61,1.62,0.61H92V119.38z" fill="#FFC107"/>
    <path d="M92.65,121.1h-2.84c-0.09,0-0.12,0.12-0.04,0.16c1.72,0.86,2.69,0.8,2.69,0.8h0.33 C92.77,121.73,92.72,121.4,92.65,121.1z" fill="#FFC107"/>
    <path d="M102.04,119.82h-4.12c-0.05,0-0.09-0.02-0.12-0.04c-0.12,0.26-0.23,0.56-0.32,0.87h3.23 c0.4,0,0.8-0.12,1.13-0.34c0.09-0.06,0.19-0.13,0.29-0.2C102.25,120.02,102.19,119.82,102.04,119.82z" fill="#FFC107"/>
    <path d="M103.88,118.41h-5.29c-0.16,0.22-0.37,0.54-0.59,0.96h4.18c0.6,0,1.18-0.21,1.62-0.61 c0.05-0.05,0.1-0.09,0.15-0.14C104.04,118.55,103.99,118.41,103.88,118.41z" fill="#FFC107"/>
    <path d="M100.19,121.1h-2.84c-0.07,0.31-0.12,0.63-0.15,0.96h0.33c0,0,0.97,0.06,2.69-0.8 C100.31,121.22,100.28,121.1,100.19,121.1z" fill="#FFC107"/>
    <path d="M96.78,117.29c-0.32,0.15-0.7,0.24-1.04,0.29c-0.49,0.07-0.99,0.07-1.48,0 c-0.35-0.05-0.72-0.14-1.04-0.29c-0.2-0.09-0.44,0.01-0.52,0.21l-0.33,0.83c-0.09,0.22-0.07,0.36,0.01,0.47 c0.3,0.4,1,1.5,1.05,2.83c0.01,0.15,0.08,0.28,0.22,0.35c0.27,0.13,0.75,0.38,1.11,0.68c0.15,0.12,0.36,0.12,0.51,0 c0.36-0.3,0.83-0.54,1.11-0.68c0.13-0.06,0.21-0.2,0.22-0.35c0.05-1.33,0.75-2.42,1.05-2.83c0.08-0.11,0.1-0.25,0.04-0.37 c-0.09-0.23-0.25-0.62-0.37-0.92C97.22,117.3,96.98,117.2,96.78,117.29z" fill="#FFC107"/>
  </g>
  <g id="suit_top_1_">
    <polygon fill="#E0E0E0" points="71.91,123.96 75.34,106 52.66,106 56.5,123.96 "/>
    <g>
      <polygon fill="#212121" points="66.85,113.53 61.22,113.53 59.44,106.03 68.56,106.03 "/>
      <polygon fill="#212121" points="67.96,123.96 66.82,113.53 61.18,113.53 60.04,123.96 "/>
    </g>
    <g>
      <path d="M63.98,106l-8.65,7.19l-1.62,1.35l-3.49-17.81c0.5-0.06,1-0.11,1.5-0.15 c1.11-0.11,1.37-0.2,2.49-0.27c0,0,1.81,3.08,3.66,5.5C61.04,105.94,63.98,106,63.98,106z" fill="#FAFAFA"/>
      <path d="M77.76,96.78l-3.48,17.76L63.99,106c0,0,2.96-0.06,6.13-4.19c1.92-2.5,3.67-5.48,3.67-5.48 c1.12,0.08,1.38,0.17,2.49,0.28C76.78,96.66,77.27,96.71,77.76,96.78z" fill="#FAFAFA"/>
    </g>
    <g>
      <path d="M55.23,113.19l-3.61-16.61c-0.5,0.04-1,0.09-1.5,0.15c-3.16,0.34-8.08,1.18-8.08,1.18l-3.1,6.57 l7.12,4.36l-4.75,6.11l9.25,9.01h6l0,0h1.01L55.23,113.19z" fill="#424242"/>
      <path d="M72.77,113.19l3.61-16.61c0.5,0.04,1,0.09,1.5,0.15c3.35,0.22,8.01,1.03,8.01,1.03l3.17,6.72 l-7.12,4.36l4.75,6.11l-9.25,9.01h-6l0,0h-1.01L72.77,113.19z" fill="#424242"/>
    </g>
  </g>
</svg>

<svg viewBox="0 0 128 128" xmlns="http://www.w3.org/2000/svg">
  <defs>
    <radialGradient id="suit_back_layer_2_" cx="64.6139" cy="226.463592" gradientTransform="matrix(1 0 0 0.5476 0 0)" gradientUnits="userSpaceOnUse" r="52.4973">
      <stop offset="0.7824" stop-color="#212121"/>
      <stop offset="1" stop-color="#616161"/>
    </radialGradient>
    <radialGradient id="SVGID_4_" cx="64.2871" cy="54.885261" gradientTransform="matrix(1 0 0 0.6655 0 0)" gradientUnits="userSpaceOnUse" r="52.0145">
      <stop offset="0.6313" stop-color="#212121" stop-opacity="0"/>
      <stop offset="0.9176" stop-color="#BFBEBE"/>
    </radialGradient>
    <radialGradient id="hairHighlights_2_" cx="64.001" cy="49.985454" gradientTransform="matrix(1 0 0 1.1901 0 0)" gradientUnits="userSpaceOnUse" r="46.9637">
      <stop offset="0.7936" stop-color="#6D4C41" stop-opacity="0"/>
      <stop offset="1" stop-color="#6D4C41"/>
    </radialGradient>
    <radialGradient id="hairHighlights_3_" cx="64.3324" cy="51.585715" gradientTransform="matrix(1 0 0 1.2135 0 0)" gradientUnits="userSpaceOnUse" r="49.6061">
      <stop offset="0.7945" stop-color="#6D4C41" stop-opacity="0"/>
      <stop offset="1" stop-color="#6D4C41"/>
    </radialGradient>
    <linearGradient id="SVGID_1_" gradientUnits="userSpaceOnUse" x1="64.061" x2="64.061" y1="27.8493" y2="44.9818">
      <stop offset="4.000000e-03" stop-color="#666666"/>
      <stop offset="0.0797" stop-color="#606060"/>
      <stop offset="0.5459" stop-color="#3F3F3F"/>
      <stop offset="0.8021" stop-color="#333333"/>
    </linearGradient>
  </defs>
  <path id="hair_4_" d="M64.57,4.87 C23.56,4.87 23.89,40.79 23.89,41.39 C23.89,65.95 25.77,100.64 35.6,114.29 C39.5,119.7 47.03,120 47.03,120 L64,119.97 L80.97,120 C80.97,120 88.35,119.59 92.4,114.29 C103.82,99.35 104.11,65.95 104.11,41.39 C104.1,40.79 105.57,4.87 64.57,4.87 Z" fill="#543930"/>
  <path id="hairHighlights_4_" d="M64.84,4.87 C23.83,4.87 23.89,42.08 23.89,42.68 C23.89,66.24 25.8,101.1 35.63,114.75 C39.53,120.16 47.3,120 47.3,120 L64.27,119.97 L81.24,120 C81.24,120 88.71,119.65 92.67,114.29 C103.67,99.4 104.1,65.94 104.1,41.38 C104.1,40.79 105.85,4.87 64.84,4.87 Z" fill="url(#hairHighlights_2_)"/>
  <path d="M73.63,112.3 L73.63,89.51 L64,89.51 L54.37,89.51 L54.37,112.3 Z" fill="#E59600"/>
  <path id="suit_back_layer_1_" d="M116.52,123.96 L116.52,120.85 C116.52,111.47 108.08,105.51 100.79,102.42 C94.34,99.68 86.51,97.32 76.8,96.62 C76.8,96.62 73.88,116.14 64.15,116 C55.83,115.88 52.24,96.59 52.24,96.59 C31.69,98.53 11.49,106.05 11.49,120.85 L11.49,123.96 L116.52,123.96 Z" fill="url(#suit_back_layer_2_)"/>
  <path id="head_2_" d="M64,16.04 C46.8,16.04 30.87,28.83 30.87,55.95 C30.87,77.74 44.36,90.62 56.1,94.78 C58.9,95.77 61.6,96.27 64,96.27 C66.38,96.27 69.07,95.78 71.85,94.8 C83.61,90.66 97.13,77.77 97.13,55.96 C97.13,28.83 81.2,16.04 64,16.04 Z" fill="#FFCA28"/>
  <path id="nose_2_" d="M67.82,68.05 C67.72,68.01 67.61,67.98 67.5,67.97 L60.51,67.97 C60.4,67.98 60.3,68.01 60.19,68.05 C59.56,68.31 59.21,68.96 59.51,69.66 C59.81,70.36 61.2,72.32 64,72.32 C66.8,72.32 68.19,70.36 68.49,69.66 C68.8,68.97 68.46,68.31 67.82,68.05 Z" fill="#E59600"/>
  <path d="M52.62,58.87 A4.87 5.04 0 1 1 42.88,58.87 A4.87 5.04 0 1 1 52.62,58.87 Z" fill="#404040"/>
  <path d="M85.12,58.87 A4.87 5.04 0 1 1 75.38,58.87 A4.87 5.04 0 1 1 85.12,58.87 Z" fill="#404040"/>
  <path id="mouth_2_" d="M72.31,76.14 C69.16,78.01 58.85,78.01 55.7,76.14 C53.89,75.07 52.05,76.71 52.8,78.35 C53.54,79.96 59.17,83.71 64.03,83.71 C68.89,83.71 74.45,79.96 75.19,78.35 C75.94,76.71 74.11,75.06 72.31,76.14 Z" fill="#795548"/>
  <path d="M54.98,49.82 C54.05,48.59 51.91,46.81 47.75,46.81 C43.59,46.81 41.44,48.6 40.52,49.82 C40.11,50.36 40.21,50.99 40.5,51.37 C40.76,51.72 41.54,52.05 42.4,51.76 C43.26,51.47 44.94,50.6 47.75,50.58 C50.56,50.6 52.24,51.47 53.1,51.76 C53.96,52.05 54.74,51.73 55,51.37 C55.29,50.99 55.39,50.36 54.98,49.82 Z" fill="#6D4C41"/>
  <path d="M87.48,49.82 C86.55,48.59 84.41,46.81 80.25,46.81 C76.09,46.81 73.94,48.6 73.02,49.82 C72.61,50.36 72.71,50.99 73,51.37 C73.26,51.72 74.04,52.05 74.9,51.76 C75.76,51.47 77.44,50.6 80.25,50.58 C83.06,50.6 84.74,51.47 85.6,51.76 C86.46,52.05 87.24,51.73 87.5,51.37 C87.79,50.99 87.89,50.36 87.48,49.82 Z" fill="#6D4C41"/>
  <path id="hair_3_" d="M64.7,4.87 C23.69,4.87 24.02,40.79 24.02,41.39 C24.02,49.15 24.21,57.92 24.77,66.71 L31.49,66.69 C31.43,63.77 33.48,45.72 39.57,44.35 C61.93,39.32 74.58,27.46 74.58,27.46 C77.87,34.64 88.16,41.65 91.85,44.32 C94.88,46.51 96.12,62.87 96.06,66.7 L103.46,66.7 C103.46,66.65 103.48,66.6 103.48,66.54 C104.04,57.79 103.95,49.08 103.95,41.37 C103.97,40.79 105.71,4.87 64.7,4.87 Z" fill="#543930"/>
  <path id="hairHighlights_1_" d="M64.7,4.87 C23.69,4.87 24.02,40.79 24.02,41.39 C24.02,49.15 24.21,57.92 24.77,66.71 L31.49,66.69 C31.43,63.77 33.48,45.72 39.57,44.35 C61.93,39.32 74.58,27.46 74.58,27.46 C77.87,34.64 88.16,41.65 91.85,44.32 C94.88,46.51 96.12,62.87 96.06,66.7 L103.46,66.7 C103.46,66.65 103.48,66.6 103.48,66.54 C104.04,57.79 103.95,49.08 103.95,41.37 C103.97,40.79 105.71,4.87 64.7,4.87 Z" fill="url(#hairHighlights_3_)"/>
  <path d="M63.8,24.17 C30.55,24.17 25.22,35.53 25.22,35.53 C25.22,35.53 35.47,45.44 63.8,45.63 C92.14,45.44 102.91,34.9 102.91,34.9 C102.91,34.9 97.06,24.17 63.8,24.17 Z" fill="url(#SVGID_1_)"/>
  <path d="M20.42,34.44 C22.11,40.63 23.73,43.18 23.73,43.18 C25.45,41.19 35.66,31.8 63.94,31.8 L64.06,31.8 L64.1,31.8 C92.38,31.8 102.13,41.23 103.84,43.23 C103.84,43.23 105.88,40.47 107.58,34.28 C111.51,19.96 92.05,3.92 64.05,3.92 C36.13,3.93 16.51,20.14 20.42,34.44 Z" fill="#303030"/>
  <path d="M98.22,35.24 C98.445,36.447 98.168,37.594 97.565,38.509 C91.726,35.316 81.367,31.8 64.1,31.8 L63.94,31.8 C46.638,31.8 36.1,35.315 30.131,38.499 C29.534,37.586 29.262,36.443 29.49,35.24 L29.5,35.18 C29.69,34.14 30.26,33.2 31.09,32.53 C34.57,29.73 45.08,22.79 63.85,22.79 C82.15,22.79 92.95,29.74 96.56,32.54 C97.43,33.2 98.02,34.16 98.22,35.24 Z" fill="#212121"/>
  <path d="M57.32,20.28 C57.23,20.34 57.14,20.38 57.03,20.38 L47.19,20.38 C46.83,20.38 46.69,20.84 46.98,21.05 C47.21,21.22 47.44,21.38 47.67,21.53 C48.47,22.07 49.41,22.35 50.38,22.35 L58.1,22.35 C57.87,21.61 57.61,20.91 57.32,20.28 Z" fill="#FFC107"/>
  <path d="M56.85,19.31 C56.33,18.31 55.82,17.53 55.45,17.01 L42.81,17.01 C42.54,17.01 42.41,17.35 42.61,17.52 C42.73,17.63 42.86,17.74 42.98,17.85 C44.05,18.79 45.43,19.31 46.86,19.31 L56.85,19.31 Z" fill="#FFC107"/>
  <path d="M58.39,23.42 L51.6,23.42 C51.39,23.42 51.32,23.71 51.51,23.81 C55.62,25.86 57.95,25.72 57.95,25.72 L58.74,25.72 C58.69,24.92 58.57,24.15 58.39,23.42 Z" fill="#FFC107"/>
  <path d="M80.83,20.38 L70.99,20.38 C70.88,20.38 70.78,20.34 70.7,20.28 C70.41,20.91 70.15,21.61 69.92,22.35 L77.64,22.35 C78.6,22.35 79.55,22.07 80.35,21.53 C80.58,21.38 80.8,21.22 81.04,21.05 C81.33,20.84 81.19,20.38 80.83,20.38 Z" fill="#FFC107"/>
  <path d="M85.22,17.01 L72.58,17.01 C72.21,17.53 71.7,18.31 71.18,19.31 L81.17,19.31 C82.6,19.31 83.98,18.8 85.05,17.85 C85.17,17.74 85.29,17.63 85.42,17.52 C85.61,17.34 85.48,17.01 85.22,17.01 Z" fill="#FFC107"/>
  <path d="M76.42,23.42 L69.63,23.42 C69.46,24.15 69.34,24.92 69.28,25.72 L70.07,25.72 C70.07,25.72 72.4,25.86 76.51,23.81 C76.69,23.71 76.63,23.42 76.42,23.42 Z" fill="#FFC107"/>
  <path d="M68.26,14.33 C67.5,14.68 66.6,14.89 65.77,15.02 C64.6,15.2 63.41,15.2 62.24,15.02 C61.41,14.89 60.51,14.68 59.75,14.33 C59.27,14.11 58.71,14.35 58.51,14.84 L57.71,16.82 C57.5,17.34 57.54,17.68 57.73,17.94 C58.44,18.9 60.12,21.53 60.23,24.7 C60.24,25.05 60.43,25.37 60.75,25.53 C61.4,25.84 62.54,26.44 63.39,27.14 C63.75,27.44 64.25,27.44 64.61,27.14 C65.47,26.43 66.6,25.84 67.25,25.53 C67.57,25.38 67.76,25.06 67.77,24.7 C67.88,21.53 69.57,18.91 70.27,17.94 C70.46,17.68 70.5,17.34 70.38,17.05 C70.15,16.49 69.78,15.56 69.49,14.84 C69.31,14.35 68.74,14.11 68.26,14.33 Z" fill="#FFC107"/>
  <path d="M20.38,34.44 C22.07,40.63 23.69,43.18 23.69,43.18 C25.41,41.18 35.67,31.56 63.96,31.56 C63.97,31.56 64.08,31.56 64.08,31.56 L64.08,31.56 C64.08,31.56 64.08,31.56 64.12,31.56 C92.4,31.56 102.08,41.23 103.8,43.23 C103.8,43.23 105.91,40.24 107.61,34.05 C111.54,19.73 92.22,3.92 64.22,3.92 C36.28,3.92 16.47,20.13 20.38,34.44 Z" fill="url(#SVGID_4_)" opacity="0.3"/>
  <path d="M92.2,119.78 C92.16,119.8 92.12,119.82 92.08,119.82 L87.96,119.82 C87.81,119.82 87.75,120.01 87.87,120.1 C87.97,120.17 88.06,120.24 88.16,120.3 C88.49,120.53 88.89,120.64 89.29,120.64 L92.52,120.64 C92.43,120.34 92.32,120.05 92.2,119.78 Z" fill="#FFC107"/>
  <path d="M92,119.38 C91.78,118.96 91.57,118.64 91.41,118.42 L86.12,118.42 C86.01,118.42 85.95,118.56 86.04,118.64 C86.09,118.69 86.14,118.73 86.19,118.78 C86.64,119.18 87.22,119.39 87.81,119.39 L92,119.39 L92,119.38 Z" fill="#FFC107"/>
  <path d="M92.65,121.1 L89.81,121.1 C89.72,121.1 89.69,121.22 89.77,121.26 C91.49,122.12 92.46,122.06 92.46,122.06 L92.79,122.06 C92.77,121.73 92.72,121.4 92.65,121.1 Z" fill="#FFC107"/>
  <path d="M102.04,119.82 L97.92,119.82 C97.87,119.82 97.83,119.8 97.8,119.78 C97.68,120.04 97.57,120.34 97.48,120.65 L100.71,120.65 C101.11,120.65 101.51,120.53 101.84,120.31 C101.93,120.25 102.03,120.18 102.13,120.11 C102.25,120.02 102.19,119.82 102.04,119.82 Z" fill="#FFC107"/>
  <path d="M103.88,118.41 L98.59,118.41 C98.43,118.63 98.22,118.95 98,119.37 L102.18,119.37 C102.78,119.37 103.36,119.16 103.8,118.76 C103.85,118.71 103.9,118.67 103.95,118.62 C104.04,118.55 103.99,118.41 103.88,118.41 Z" fill="#FFC107"/>
  <path d="M100.19,121.1 L97.35,121.1 C97.28,121.41 97.23,121.73 97.2,122.06 L97.53,122.06 C97.53,122.06 98.5,122.12 100.22,121.26 C100.31,121.22 100.28,121.1 100.19,121.1 Z" fill="#FFC107"/>
  <path d="M96.78,117.29 C96.46,117.44 96.08,117.53 95.74,117.58 C95.25,117.65 94.75,117.65 94.26,117.58 C93.91,117.53 93.54,117.44 93.22,117.29 C93.02,117.2 92.78,117.3 92.7,117.5 L92.37,118.33 C92.28,118.55 92.3,118.69 92.38,118.8 C92.68,119.2 93.38,120.3 93.43,121.63 C93.44,121.78 93.51,121.91 93.65,121.98 C93.92,122.11 94.4,122.36 94.76,122.66 C94.91,122.78 95.12,122.78 95.27,122.66 C95.63,122.36 96.1,122.12 96.38,121.98 C96.51,121.92 96.59,121.78 96.6,121.63 C96.65,120.3 97.35,119.21 97.65,118.8 C97.73,118.69 97.75,118.55 97.69,118.43 C97.6,118.2 97.44,117.81 97.32,117.51 C97.22,117.3 96.98,117.2 96.78,117.29 Z" fill="#FFC107"/>
  <path d="M71.91,123.96 L75.34,106 L52.66,106 L56.5,123.96 Z" fill="#E0E0E0"/>
  <path d="M66.85,113.53 L61.22,113.53 L59.44,106.03 L68.56,106.03 Z" fill="#212121"/>
  <path d="M67.96,123.96 L66.82,113.53 L61.18,113.53 L60.04,123.96 Z" fill="#212121"/>
  <path d="M63.98,106 L55.33,113.19 L53.71,114.54 L50.22,96.73 C50.72,96.67 51.22,96.62 51.72,96.58 C52.83,96.47 53.09,96.38 54.21,96.31 C54.21,96.31 56.02,99.39 57.87,101.81 C61.04,105.94 63.98,106 63.98,106 Z" fill="#FAFAFA"/>
  <path d="M77.76,96.78 L74.28,114.54 L63.99,106 C63.99,106 66.95,105.94 70.12,101.81 C72.04,99.31 73.79,96.33 73.79,96.33 C74.91,96.41 75.17,96.5 76.28,96.61 C76.78,96.66 77.27,96.71 77.76,96.78 Z" fill="#FAFAFA"/>
  <path d="M55.23,113.19 L51.62,96.58 C51.12,96.62 50.62,96.67 50.12,96.73 C46.96,97.07 42.04,97.91 42.04,97.91 L38.94,104.48 L46.06,108.84 L41.31,114.95 L50.56,123.96 L56.56,123.96 L56.56,123.96 L57.57,123.96 L55.23,113.19 Z" fill="#424242"/>
  <path d="M72.77,113.19 L76.38,96.58 C76.88,96.62 77.38,96.67 77.88,96.73 C81.23,96.95 85.89,97.76 85.89,97.76 L89.06,104.48 L81.94,108.84 L86.69,114.95 L77.44,123.96 L71.44,123.96 L71.44,123.96 L70.43,123.96 L72.77,113.19 Z" fill="#424242"/>
</svg>
